X:1
T:Glory to the Savior
T:Glory to the Savior
T:James Cartwright Macy
T:James Cartwright Macy, 1880
T:Public Domain Courtesy of the Cyber Hymnal™
C:James Cartwright Macy
Z:Public Domain
Z:Courtesy of the Cyber Hymnal™
%%score ( 1 2 ) ( 3 4 )
L:1/8
Q:1/4=100
M:4/4
K:Bb
V:1 treble 
V:2 treble 
V:3 bass 
V:4 bass 
V:1
 [Fd]>[Ge] [Fd]>[Ec] [DB]2 [DF]2 | [EG]4 [EB]2 [EB]2 | [EA]2 [DB]2 [Fc]2 [Fd]2 | [Fc]6 z2 | %4
w: 1.~Stand- ing by the cross of|Je- sus, Thro’|faith His throne we|see,|
w: 2.~Let me bear the cross for|Je- sus, And|wait not by the|way;|
w: 3.~Hap- py, hap- py Chris- tian|sol- dier! Be|watch- ful and be|true;|
 [Fd]>[Ge] [Fd]>[Ec] [DB]2 [DF]2 | [EG]4 [EB]2 [EG]2 | [DF]2 [DB]2 [Ec]2 (dc) | B4- [DB]3 z || %8
w: Where a- mid the hosts of|Hea- ven, The|Chris- tian’s home shall *|be. *|
w: Glad- ly I’ll o- bey His|pre- cepts, And|al- ways trust and *|pray. Glo-|
w: Nev- er leave the post of|du- ty That|Christ has giv’n to *|you. *|
"^Refrain" [Ge]3 [Ge] [GB]2 [Gc]2 | [^Fd]3 [Fd] [Fd]2 [Fc]2 | [GB]2 [GB]2 [GB]>[^FA] [GB]>[EG] | %11
w: |||
w: * ry, glo- ry|to the Sav- ior!|He’s my shep- herd, And my|
w: |||
 [DF]2 [FB]2 [Fc]4 | [Fd]3 [Fd] [Ge]2 [Fd]2 | [Ec]2 [EB]2 [EA]2 [EG]2 | [DF]2 [DB]2 [Ec]2 (dc) | %15
w: ||||
w: strength and shield!|And to Him, the|King of glo- ry,|Sin- ful hosts shall *|
w: ||||
 B4- [DB]3 z |] %16
w: |
w: yield. *|
w: |
V:2
 x8 | x8 | x8 | x8 | x8 | x8 | x6 E2 | D2 E2 x4 || x8 | x8 | x8 | x8 | x8 | x8 | x6 E2 | %15
 D2 E2 x4 |] %16
V:3
 [B,,B,]>[B,,B,] [B,,B,]>[B,,B,] [B,,B,]2 [B,,B,]2 | [E,B,]4 [E,G,]2 [E,G,]2 | %2
 (F,C) [F,B,]2 [F,A,]2 [F,B,]2 | ([F,A,]2 [F,A,]2 [F,A,]2 (3F,E,D,) | %4
 [B,,B,]>[B,,B,] [B,,B,]>[B,,B,] [B,,B,]2 [B,,B,]2 | [E,B,]4 [E,G,]2 [E,B,]2 | %6
 [F,B,]2 [F,B,]2 [F,A,]2 [F,A,]2 | ([B,,B,]2 [B,,G,]2 [B,,F,]3) z || %8
 [E,B,]3 [E,B,] [E,B,]2 [E,G,]2 | [D,A,]3 [D,A,] [D,A,]2 [D,A,]2 | %10
 [E,G,]2 [E,B,]2 [E,E]>[E,E] [E,E]>[E,B,] | [B,,B,]2 [D,B,]2 [F,A,]4 | %12
 [B,,B,]3 [B,,B,] [B,,B,]2 [B,,B,]2 | [E,G,]2 [E,G,]2 [E,A,]2 [E,B,]2 | %14
 [F,B,]2 [F,B,]2 [F,A,]2 [F,A,]2 | ([B,,B,]2 [B,,G,]2 [B,,F,]3) z |] %16
V:4
 x8 | x8 | F,2 x6 | x8 | x8 | x8 | x8 | x8 || x8 | x8 | x8 | x8 | x8 | x8 | x8 | x8 |] %16

